images/11443.svg

<?xml version="1.0" encoding="UTF-8"?>
<svg xmlns="http://www.w3.org/2000/svg" xmlns:xlink="http://www.w3.org/1999/xlink" width="300pt" height="300pt" viewBox="0 0 300 300" version="1.1">
<defs>
<g>
<symbol overflow="visible" id="glyph0-0">
<path style="stroke:none;" d="M 0.796875 2.828125 L 0.796875 -11.28125 L 8.796875 -11.28125 L 8.796875 2.828125 Z M 1.703125 1.9375 L 7.90625 1.9375 L 7.90625 -10.390625 L 1.703125 -10.390625 Z M 1.703125 1.9375 "/>
</symbol>
<symbol overflow="visible" id="glyph0-1">
<path style="stroke:none;" d="M 1.578125 -11.671875 L 3.703125 -11.671875 L 8.875 -1.90625 L 8.875 -11.671875 L 10.40625 -11.671875 L 10.40625 0 L 8.28125 0 L 3.109375 -9.765625 L 3.109375 0 L 1.578125 0 Z M 1.578125 -11.671875 "/>
</symbol>
<symbol overflow="visible" id="glyph0-2">
<path style="stroke:none;" d="M 6.3125 -10.59375 C 5.164062 -10.59375 4.253906 -10.164062 3.578125 -9.3125 C 2.898438 -8.457031 2.5625 -7.296875 2.5625 -5.828125 C 2.5625 -4.359375 2.898438 -3.195312 3.578125 -2.34375 C 4.253906 -1.488281 5.164062 -1.0625 6.3125 -1.0625 C 7.457031 -1.0625 8.363281 -1.488281 9.03125 -2.34375 C 9.695312 -3.195312 10.03125 -4.359375 10.03125 -5.828125 C 10.03125 -7.296875 9.695312 -8.457031 9.03125 -9.3125 C 8.363281 -10.164062 7.457031 -10.59375 6.3125 -10.59375 Z M 6.3125 -11.875 C 7.945312 -11.875 9.253906 -11.328125 10.234375 -10.234375 C 11.210938 -9.140625 11.703125 -7.671875 11.703125 -5.828125 C 11.703125 -3.984375 11.210938 -2.507812 10.234375 -1.40625 C 9.253906 -0.3125 7.945312 0.234375 6.3125 0.234375 C 4.664062 0.234375 3.351562 -0.3125 2.375 -1.40625 C 1.394531 -2.507812 0.90625 -3.984375 0.90625 -5.828125 C 0.90625 -7.671875 1.394531 -9.140625 2.375 -10.234375 C 3.351562 -11.328125 4.664062 -11.875 6.3125 -11.875 Z M 6.3125 -11.875 "/>
</symbol>
</g>
</defs>
<g id="surface55409">
<rect x="0" y="0" width="300" height="300" style="fill:rgb(100%,100%,100%);fill-opacity:1;stroke:none;"/>
<path style="fill:none;stroke-width:1.2;stroke-linecap:butt;stroke-linejoin:miter;stroke:rgb(0%,0%,0%);stroke-opacity:1;stroke-miterlimit:10;" d="M 79.136719 223.828125 L 106.097656 196.695312 "/>
<path style="fill:none;stroke-width:1.2;stroke-linecap:butt;stroke-linejoin:miter;stroke:rgb(0%,0%,0%);stroke-opacity:1;stroke-miterlimit:10;" d="M 106.097656 196.695312 L 96.082031 159.78125 "/>
<path style="fill:none;stroke-width:1.2;stroke-linecap:butt;stroke-linejoin:miter;stroke:rgb(0%,0%,0%);stroke-opacity:1;stroke-miterlimit:10;" d="M 113.78125 190.648438 L 105.769531 161.117188 "/>
<path style="fill:none;stroke-width:1.2;stroke-linecap:butt;stroke-linejoin:miter;stroke:rgb(0%,0%,0%);stroke-opacity:1;stroke-miterlimit:10;" d="M 143.078125 206.476562 L 106.097656 196.695312 "/>
<path style="fill:none;stroke-width:1.2;stroke-linecap:butt;stroke-linejoin:miter;stroke:rgb(0%,0%,0%);stroke-opacity:1;stroke-miterlimit:10;" d="M 96.082031 159.78125 L 123.039062 132.648438 "/>
<path style="fill:none;stroke-width:1.2;stroke-linecap:butt;stroke-linejoin:miter;stroke:rgb(0%,0%,0%);stroke-opacity:1;stroke-miterlimit:10;" d="M 96.082031 159.78125 L 77.589844 154.890625 "/>
<path style="fill:none;stroke-width:1.2;stroke-linecap:butt;stroke-linejoin:miter;stroke:rgb(0%,0%,100%);stroke-opacity:1;stroke-miterlimit:10;" d="M 77.589844 154.890625 L 59.101562 150 "/>
<path style="fill:none;stroke-width:1.2;stroke-linecap:butt;stroke-linejoin:miter;stroke:rgb(0%,0%,0%);stroke-opacity:1;stroke-miterlimit:10;" d="M 123.039062 132.648438 L 160.019531 142.429688 "/>
<path style="fill:none;stroke-width:1.2;stroke-linecap:butt;stroke-linejoin:miter;stroke:rgb(0%,0%,0%);stroke-opacity:1;stroke-miterlimit:10;" d="M 124.4375 142.328125 L 154.019531 150.152344 "/>
<path style="fill:none;stroke-width:1.2;stroke-linecap:butt;stroke-linejoin:miter;stroke:rgb(0%,0%,0%);stroke-opacity:1;stroke-miterlimit:10;" d="M 160.019531 142.429688 L 170.035156 179.34375 "/>
<path style="fill:none;stroke-width:1.2;stroke-linecap:butt;stroke-linejoin:miter;stroke:rgb(0%,0%,0%);stroke-opacity:1;stroke-miterlimit:10;" d="M 160.019531 142.429688 L 173.5 128.863281 "/>
<path style="fill:none;stroke-width:1.2;stroke-linecap:butt;stroke-linejoin:miter;stroke:rgb(0%,0%,100%);stroke-opacity:1;stroke-miterlimit:10;" d="M 173.5 128.863281 L 186.976562 115.296875 "/>
<path style="fill:none;stroke-width:1.2;stroke-linecap:butt;stroke-linejoin:miter;stroke:rgb(0%,0%,0%);stroke-opacity:1;stroke-miterlimit:10;" d="M 170.035156 179.34375 L 143.078125 206.476562 "/>
<path style="fill:none;stroke-width:1.2;stroke-linecap:butt;stroke-linejoin:miter;stroke:rgb(0%,0%,0%);stroke-opacity:1;stroke-miterlimit:10;" d="M 160.957031 175.714844 L 139.386719 197.421875 "/>
<path style="fill:none;stroke-width:1.2;stroke-linecap:butt;stroke-linejoin:miter;stroke:rgb(0%,0%,100%);stroke-opacity:1;stroke-miterlimit:10;" d="M 186.976562 115.296875 L 205.46875 120.1875 "/>
<path style="fill:none;stroke-width:1.2;stroke-linecap:butt;stroke-linejoin:miter;stroke:rgb(0%,0%,0%);stroke-opacity:1;stroke-miterlimit:10;" d="M 205.46875 120.1875 L 223.957031 125.078125 "/>
<path style="fill:none;stroke-width:1.2;stroke-linecap:butt;stroke-linejoin:miter;stroke:rgb(0%,0%,100%);stroke-opacity:1;stroke-miterlimit:10;" d="M 188.375 124.972656 L 203.164062 128.886719 "/>
<path style="fill:none;stroke-width:1.2;stroke-linecap:butt;stroke-linejoin:miter;stroke:rgb(0%,0%,0%);stroke-opacity:1;stroke-miterlimit:10;" d="M 203.164062 128.886719 L 217.957031 132.800781 "/>
<path style=" stroke:none;fill-rule:nonzero;fill:rgb(100%,100%,100%);fill-opacity:1;" d="M 180.976562 105.796875 L 192.976562 105.796875 L 192.976562 124.796875 L 180.976562 124.796875 Z M 180.976562 105.796875 "/>
<g style="fill:rgb(0%,0%,100%);fill-opacity:1;">
  <use xlink:href="#glyph0-1" x="180.976562" y="120.648438"/>
</g>
<path style="fill:none;stroke-width:1.2;stroke-linecap:butt;stroke-linejoin:miter;stroke:rgb(0%,0%,0%);stroke-opacity:1;stroke-miterlimit:10;" d="M 222.804688 129.425781 L 241.292969 134.316406 "/>
<path style="fill:none;stroke-width:1.2;stroke-linecap:butt;stroke-linejoin:miter;stroke:rgb(100%,0%,0%);stroke-opacity:1;stroke-miterlimit:10;" d="M 241.292969 134.316406 L 259.785156 139.207031 "/>
<path style="fill:none;stroke-width:1.2;stroke-linecap:butt;stroke-linejoin:miter;stroke:rgb(0%,0%,0%);stroke-opacity:1;stroke-miterlimit:10;" d="M 225.105469 120.726562 L 243.597656 125.617188 "/>
<path style="fill:none;stroke-width:1.2;stroke-linecap:butt;stroke-linejoin:miter;stroke:rgb(100%,0%,0%);stroke-opacity:1;stroke-miterlimit:10;" d="M 243.597656 125.617188 L 262.085938 130.507812 "/>
<path style=" stroke:none;fill-rule:nonzero;fill:rgb(100%,100%,100%);fill-opacity:1;" d="M 254.933594 125.359375 L 267.933594 125.359375 L 267.933594 144.359375 L 254.933594 144.359375 Z M 254.933594 125.359375 "/>
<g style="fill:rgb(100%,0%,0%);fill-opacity:1;">
  <use xlink:href="#glyph0-2" x="254.933594" y="140.210938"/>
</g>
<path style="fill:none;stroke-width:1.2;stroke-linecap:butt;stroke-linejoin:miter;stroke:rgb(0%,0%,100%);stroke-opacity:1;stroke-miterlimit:10;" d="M 59.101562 150 L 54.09375 131.542969 "/>
<path style="fill:none;stroke-width:1.2;stroke-linecap:butt;stroke-linejoin:miter;stroke:rgb(0%,0%,0%);stroke-opacity:1;stroke-miterlimit:10;" d="M 54.09375 131.542969 L 49.082031 113.085938 "/>
<path style="fill:none;stroke-width:1.2;stroke-linecap:butt;stroke-linejoin:miter;stroke:rgb(0%,0%,100%);stroke-opacity:1;stroke-miterlimit:10;" d="M 66.785156 143.953125 L 62.777344 129.183594 "/>
<path style="fill:none;stroke-width:1.2;stroke-linecap:butt;stroke-linejoin:miter;stroke:rgb(0%,0%,0%);stroke-opacity:1;stroke-miterlimit:10;" d="M 62.777344 129.183594 L 58.769531 114.417969 "/>
<path style=" stroke:none;fill-rule:nonzero;fill:rgb(100%,100%,100%);fill-opacity:1;" d="M 53.101562 140.5 L 65.101562 140.5 L 65.101562 159.5 L 53.101562 159.5 Z M 53.101562 140.5 "/>
<g style="fill:rgb(0%,0%,100%);fill-opacity:1;">
  <use xlink:href="#glyph0-1" x="53.101562" y="155.351562"/>
</g>
<path style="fill:none;stroke-width:1.2;stroke-linecap:butt;stroke-linejoin:miter;stroke:rgb(0%,0%,0%);stroke-opacity:1;stroke-miterlimit:10;" d="M 53.425781 111.90625 L 48.417969 93.449219 "/>
<path style="fill:none;stroke-width:1.2;stroke-linecap:butt;stroke-linejoin:miter;stroke:rgb(100%,0%,0%);stroke-opacity:1;stroke-miterlimit:10;" d="M 48.417969 93.449219 L 43.410156 74.992188 "/>
<path style="fill:none;stroke-width:1.2;stroke-linecap:butt;stroke-linejoin:miter;stroke:rgb(0%,0%,0%);stroke-opacity:1;stroke-miterlimit:10;" d="M 44.742188 114.265625 L 39.730469 95.804688 "/>
<path style="fill:none;stroke-width:1.2;stroke-linecap:butt;stroke-linejoin:miter;stroke:rgb(100%,0%,0%);stroke-opacity:1;stroke-miterlimit:10;" d="M 39.730469 95.804688 L 34.722656 77.347656 "/>
<path style=" stroke:none;fill-rule:nonzero;fill:rgb(100%,100%,100%);fill-opacity:1;" d="M 33.066406 66.671875 L 46.066406 66.671875 L 46.066406 85.671875 L 33.066406 85.671875 Z M 33.066406 66.671875 "/>
<g style="fill:rgb(100%,0%,0%);fill-opacity:1;">
  <use xlink:href="#glyph0-2" x="33.066406" y="81.523438"/>
</g>
</g>
</svg>

<svg xmlns="http://www.w3.org/2000/svg" xmlns:xlink="http://www.w3.org/1999/xlink" width="300pt" height="300pt" viewBox="0 0 300 300"><defs><symbol overflow="visible"><path d="M.797 2.828v-14.11h8V2.83zm.906-.89h6.203v-12.33H1.703zm0 0"/></symbol><symbol overflow="visible" id="a"><path d="M1.578-11.672h2.125l5.172 9.766v-9.766h1.53V0H8.282L3.11-9.766V0H1.577zm0 0"/></symbol><symbol overflow="visible" id="b"><path d="M6.313-10.594c-1.15 0-2.06.43-2.735 1.28-.68.857-1.015 2.017-1.015 3.486 0 1.47.335 2.633 1.015 3.484.676.856 1.586 1.28 2.735 1.28 1.144.002 2.05-.424 2.718-1.28.665-.85 1-2.015 1-3.484 0-1.47-.335-2.63-1-3.484-.667-.852-1.573-1.282-2.717-1.282zm0-1.28c1.632 0 2.94.546 3.92 1.64.978 1.093 1.47 2.562 1.47 4.406 0 1.844-.492 3.32-1.47 4.422-.98 1.093-2.288 1.64-3.92 1.64-1.65 0-2.96-.546-3.938-1.64-.98-1.102-1.47-2.578-1.47-4.422 0-1.844.49-3.313 1.47-4.406.977-1.094 2.29-1.64 3.938-1.64zm0 0"/></symbol></defs><g><path fill="#fff" d="M0 0h300v300H0z"/><path d="M79.137 223.828l26.96-27.133M106.098 196.695L96.082 159.78M113.78 190.648l-8.01-29.53M143.078 206.477l-36.98-9.782M96.082 159.78l26.957-27.132M96.082 159.78l-18.492-4.89" stroke-width="1.2" stroke="#000" stroke-miterlimit="10" fill="none"/><path d="M77.59 154.89L59.102 150" stroke-width="1.2" stroke="#00f" stroke-miterlimit="10" fill="none"/><path d="M123.04 132.648l36.98 9.782M124.438 142.328l29.582 7.824M160.02 142.43l10.015 36.914M160.02 142.43l13.48-13.567" stroke-width="1.2" stroke="#000" stroke-miterlimit="10" fill="none"/><path d="M173.5 128.863l13.477-13.566" stroke-width="1.2" stroke="#00f" stroke-miterlimit="10" fill="none"/><path d="M170.035 179.344l-26.957 27.133M160.957 175.715l-21.57 21.707" stroke-width="1.2" stroke="#000" stroke-miterlimit="10" fill="none"/><path d="M186.977 115.297l18.492 4.89" stroke-width="1.2" stroke="#00f" stroke-miterlimit="10" fill="none"/><path d="M205.47 120.188l18.487 4.89" stroke-width="1.2" stroke="#000" stroke-miterlimit="10" fill="none"/><path d="M188.375 124.973l14.79 3.914" stroke-width="1.2" stroke="#00f" stroke-miterlimit="10" fill="none"/><path d="M203.164 128.887l14.793 3.914" stroke-width="1.2" stroke="#000" stroke-miterlimit="10" fill="none"/><path d="M180.977 105.797h12v19h-12zm0 0" fill="#fff"/><use xlink:href="#a" x="180.977" y="120.648" fill="#00f"/><path d="M222.805 129.426l18.488 4.89" stroke-width="1.2" stroke="#000" stroke-miterlimit="10" fill="none"/><path d="M241.293 134.316l18.492 4.89" stroke-width="1.2" stroke="#f00" stroke-miterlimit="10" fill="none"/><path d="M225.105 120.727l18.493 4.89" stroke-width="1.2" stroke="#000" stroke-miterlimit="10" fill="none"/><path d="M243.598 125.617l18.488 4.89" stroke-width="1.2" stroke="#f00" stroke-miterlimit="10" fill="none"/><path d="M254.934 125.36h13v19h-13zm0 0" fill="#fff"/><use xlink:href="#b" x="254.934" y="140.211" fill="#f00"/><path d="M59.102 150l-5.008-18.457" stroke-width="1.2" stroke="#00f" stroke-miterlimit="10" fill="none"/><path d="M54.094 131.543l-5.012-18.457" stroke-width="1.2" stroke="#000" stroke-miterlimit="10" fill="none"/><path d="M66.785 143.953l-4.008-14.77" stroke-width="1.2" stroke="#00f" stroke-miterlimit="10" fill="none"/><path d="M62.777 129.184l-4.007-14.766" stroke-width="1.2" stroke="#000" stroke-miterlimit="10" fill="none"/><path d="M53.102 140.5h12v19h-12zm0 0" fill="#fff"/><use xlink:href="#a" x="53.102" y="155.352" fill="#00f"/><path d="M53.426 111.906L48.418 93.45" stroke-width="1.2" stroke="#000" stroke-miterlimit="10" fill="none"/><path d="M48.418 93.45L43.41 74.99" stroke-width="1.2" stroke="#f00" stroke-miterlimit="10" fill="none"/><path d="M44.742 114.266l-5.012-18.46" stroke-width="1.2" stroke="#000" stroke-miterlimit="10" fill="none"/><path d="M39.73 95.805l-5.007-18.457" stroke-width="1.2" stroke="#f00" stroke-miterlimit="10" fill="none"/><path d="M33.066 66.672h13v19h-13zm0 0" fill="#fff"/><use xlink:href="#b" x="33.066" y="81.523" fill="#f00"/></g></svg>
